public/img/instagram-black.svg

<svg width="25" height="24" viewBox="0 0 25 24" fill="none" xmlns="http://www.w3.org/2000/svg">
<path d="M18.2023 5.46C17.965 5.46 17.733 5.53038 17.5356 5.66224C17.3383 5.79409 17.1845 5.98151 17.0936 6.20078C17.0028 6.42005 16.9791 6.66133 17.0254 6.89411C17.0717 7.12689 17.186 7.34071 17.3538 7.50853C17.5216 7.67635 17.7354 7.79064 17.9682 7.83694C18.201 7.88324 18.4423 7.85948 18.6615 7.76866C18.8808 7.67783 19.0682 7.52402 19.2001 7.32668C19.3319 7.12935 19.4023 6.89734 19.4023 6.66C19.4023 6.34174 19.2759 6.03652 19.0508 5.81147C18.8258 5.58643 18.5206 5.46 18.2023 5.46ZM22.8023 7.88C22.7829 7.0503 22.6275 6.2294 22.3423 5.45C22.088 4.78313 21.6923 4.17928 21.1823 3.68C20.6871 3.16743 20.0819 2.77418 19.4123 2.53C18.635 2.23616 17.8132 2.07721 16.9823 2.06C15.9223 2 15.5823 2 12.8623 2C10.1423 2 9.8023 2 8.7423 2.06C7.91146 2.07721 7.08965 2.23616 6.3123 2.53C5.64398 2.77665 5.03924 3.16956 4.5423 3.68C4.02973 4.17518 3.63648 4.78044 3.3923 5.45C3.09847 6.22734 2.93951 7.04915 2.9223 7.88C2.8623 8.94 2.8623 9.28 2.8623 12C2.8623 14.72 2.8623 15.06 2.9223 16.12C2.93951 16.9508 3.09847 17.7727 3.3923 18.55C3.63648 19.2196 4.02973 19.8248 4.5423 20.32C5.03924 20.8304 5.64398 21.2234 6.3123 21.47C7.08965 21.7638 7.91146 21.9228 8.7423 21.94C9.8023 22 10.1423 22 12.8623 22C15.5823 22 15.9223 22 16.9823 21.94C17.8132 21.9228 18.635 21.7638 19.4123 21.47C20.0819 21.2258 20.6871 20.8326 21.1823 20.32C21.6945 19.8226 22.0906 19.2182 22.3423 18.55C22.6275 17.7706 22.7829 16.9497 22.8023 16.12C22.8023 15.06 22.8623 14.72 22.8623 12C22.8623 9.28 22.8623 8.94 22.8023 7.88ZM21.0023 16C20.995 16.6348 20.8801 17.2637 20.6623 17.86C20.5026 18.2952 20.2462 18.6884 19.9123 19.01C19.588 19.3405 19.1955 19.5964 18.7623 19.76C18.166 19.9778 17.5371 20.0927 16.9023 20.1C15.9023 20.15 15.5323 20.16 12.9023 20.16C10.2723 20.16 9.9023 20.16 8.9023 20.1C8.2432 20.1123 7.5869 20.0109 6.9623 19.8C6.54809 19.6281 6.17366 19.3728 5.8623 19.05C5.53039 18.7287 5.27715 18.3352 5.1223 17.9C4.87816 17.2952 4.74275 16.6519 4.7223 16C4.7223 15 4.6623 14.63 4.6623 12C4.6623 9.37 4.6623 9 4.7223 8C4.72679 7.35106 4.84525 6.70795 5.0723 6.1C5.24835 5.67791 5.51857 5.30166 5.8623 5C6.16612 4.65617 6.54159 4.3831 6.9623 4.2C7.57186 3.98004 8.2143 3.86508 8.8623 3.86C9.8623 3.86 10.2323 3.8 12.8623 3.8C15.4923 3.8 15.8623 3.8 16.8623 3.86C17.4971 3.86728 18.126 3.98225 18.7223 4.2C19.1767 4.36865 19.5846 4.64285 19.9123 5C20.24 5.30718 20.4961 5.68273 20.6623 6.1C20.8846 6.70893 20.9996 7.35178 21.0023 8C21.0523 9 21.0623 9.37 21.0623 12C21.0623 14.63 21.0523 15 21.0023 16ZM12.8623 6.87C11.8481 6.87198 10.8573 7.17453 10.015 7.73942C9.17265 8.30431 8.51668 9.1062 8.12994 10.0438C7.74319 10.9813 7.64303 12.0125 7.8421 13.0069C8.04117 14.0014 8.53054 14.9145 9.24838 15.631C9.96622 16.3474 10.8803 16.835 11.8752 17.0321C12.87 17.2293 13.901 17.1271 14.8378 16.7385C15.7746 16.35 16.5752 15.6924 17.1384 14.849C17.7017 14.0056 18.0023 13.0142 18.0023 12C18.0036 11.3251 17.8715 10.6566 17.6135 10.033C17.3556 9.40931 16.9769 8.84281 16.4992 8.36605C16.0215 7.88929 15.4543 7.51168 14.8301 7.25493C14.206 6.99818 13.5372 6.86736 12.8623 6.87ZM12.8623 15.33C12.2037 15.33 11.5599 15.1347 11.0123 14.7688C10.4646 14.4029 10.0378 13.8828 9.78579 13.2743C9.53375 12.6659 9.4678 11.9963 9.59629 11.3503C9.72478 10.7044 10.0419 10.111 10.5076 9.64533C10.9733 9.17963 11.5667 8.86247 12.2127 8.73398C12.8586 8.6055 13.5282 8.67144 14.1366 8.92348C14.7451 9.17552 15.2652 9.60234 15.6311 10.15C15.997 10.6976 16.1923 11.3414 16.1923 12C16.1923 12.4373 16.1062 12.8703 15.9388 13.2743C15.7715 13.6784 15.5262 14.0454 15.217 14.3547C14.9078 14.6639 14.5407 14.9092 14.1366 15.0765C13.7326 15.2439 13.2996 15.33 12.8623 15.33Z" fill="#4D4D4D"/>
</svg>

<svg width="25" height="24" fill="none" xmlns="http://www.w3.org/2000/svg"><path d="M18.202 5.46a1.2 1.2 0 100 2.4 1.2 1.2 0 000-2.4zm4.6 2.42a7.588 7.588 0 00-.46-2.43 4.94 4.94 0 00-1.16-1.77 4.7 4.7 0 00-1.77-1.15 7.3 7.3 0 00-2.43-.47c-1.06-.06-1.4-.06-4.12-.06s-3.06 0-4.12.06a7.3 7.3 0 00-2.43.47 4.78 4.78 0 00-1.77 1.15 4.7 4.7 0 00-1.15 1.77 7.3 7.3 0 00-.47 2.43c-.06 1.06-.06 1.4-.06 4.12s0 3.06.06 4.12a7.3 7.3 0 00.47 2.43 4.7 4.7 0 001.15 1.77 4.78 4.78 0 001.77 1.15 7.3 7.3 0 002.43.47c1.06.06 1.4.06 4.12.06s3.06 0 4.12-.06a7.3 7.3 0 002.43-.47 4.7 4.7 0 001.77-1.15 4.85 4.85 0 001.16-1.77c.286-.78.44-1.6.46-2.43 0-1.06.06-1.4.06-4.12s0-3.06-.06-4.12zm-1.8 8.12a5.61 5.61 0 01-.34 1.86 3.06 3.06 0 01-.75 1.15 3.19 3.19 0 01-1.15.75 5.61 5.61 0 01-1.86.34c-1 .05-1.37.06-4 .06s-3 0-4-.06a5.73 5.73 0 01-1.94-.3 3.27 3.27 0 01-1.1-.75 3 3 0 01-.74-1.15 5.54 5.54 0 01-.4-1.9c0-1-.06-1.37-.06-4s0-3 .06-4a5.54 5.54 0 01.35-1.9 3 3 0 01.79-1.1 3.14 3.14 0 011.1-.8 5.73 5.73 0 011.9-.34c1 0 1.37-.06 4-.06s3 0 4 .06a5.61 5.61 0 011.86.34 3.06 3.06 0 011.19.8c.328.307.584.683.75 1.1.223.609.338 1.252.34 1.9.05 1 .06 1.37.06 4s-.01 3-.06 4zm-8.14-9.13a5.13 5.13 0 105.14 5.13 5.12 5.12 0 00-5.14-5.13zm0 8.46a3.33 3.33 0 110-6.66 3.33 3.33 0 010 6.66z" fill="#4D4D4D"/></svg>
